!!!OTL: BEI WATERLOO DA FIEL DER ERSTE SCHUSS
!!!ARE: Europa, Mitteleuropa, Deutschland, Schleswig - Holstein
!!!SCT: E0359
!!!YEM: Copyright 1995, estate of Helmut Schaffrath.
**kern
*ICvox
*Ivox
*M4/4
*k[]
*C:
{4G
=1
4c
4G
4E
4G
=2
2c}
{2A
=3
4G
8f
8f
8e
8e
8d
8d
=4
2c
4r}
{4c
=5
4d
8d
8d
8B
8B
8G
8G
=6
4c
4G
4c}
{4c
=7
4d
8d
8d
8B
8B
8G
8G
=8
4c
4G
4c}
{4c
=9
4A
8A
8A
8A
8c
8B
8A
=10
4.G
8c
4.c}
{8e
=11
8e
8d
8f
8d
4c
4B
=12
2c
4r}
==
!!!AGN: historisches Lied, Krieg gegen Napoleon (1815)
!!!ONB: ESAC (Essen Associative Code) Database: ERK1
!!!AMT: simple quadruple
!!!AIN: vox
!!!EED: Helmut Schaffrath
!!!EEV: 1.0
*-
